X: 126
T:McDonagh`s Reel
M:C
L:1/8
Q:224
K:G
[|B3 G A2 GE | DEGB AG E2 | B3 G A3 B | cBAc BG G2 |
B3 G (3AdA GE | DEGB AG E2 | B3 A G2 Ad | dcBG G4 |]
[| g2 (3agf gedg | egdg  egde | g2 (3agf gedg | eaab agef |
 g2 (3agf g2 dg| egdg e3 f | gedB A2 Bd | egfa gedc |]
